X:1
T:Contredanse in A
T:Contredanse in A
T:K. 15l
T:W.A. Mozart
C:W. A. Mozart
%%score { 1 | ( 2 3 ) }
L:1/8
Q:1/4=150
M:2/4
K:A
V:1 treble nm="Piano" snm="Pno."
V:2 bass 
V:3 bass 
V:1
"^Contredanse" ecTBA | a2 z2 | ecTBA | a2 z2 | aggf | feed | ceGB | A2 z2 | ecTBA | a2 z2 | ecTBA | %11
 a2 z2 | aggf | feed | ceGB | A2 z2!fine! ::[K:C]"^Minore" z2 [=ce]2 | z2 [df]2 | z2 [B^g]2 | %19
 z2 [ca]2 | [^GB]2 [A=c]2 | [Bd]2 [Ac]2 | [^GB][Ac][Bd][Ac] | [^GB]4 :: z2 [^ce]2 | z2 [df]2 | %26
 z2 [B^f]2 | z2 [d^g]2 | [=ca]2 [d=f]2 | [ce]2 [Bd]2 | [Ac][ce][Bd][^GB] | [CEA]4!D.C.! :| %32
V:2
 A,,2 z2 | A,,A,E,C, | A,,2 z2 | A,,A,E,A, | B,,B, A,2 | G,2 F,2 | E,2 D,2 | C,2 A,,2 | A,2 z2 | %9
 A,,A,E,C, | A,,2 z2 | A,,A,E,A, | B,,B, A,2 | G,2 F,2 | E,2 D,2 | C,A, A,,2 ::[K:C] A,2 z2 | %17
 D,2 z2 | E,2 z2 | A,,2 z2 | [E,,E,]4 | [E,,E,]2 [E,,E,]2 | [E,,E,][E,,E,][E,,E,][E,,E,] | %23
 E,2 E,,2 :: A,2 z2 | D,2 z2 | ^D,2 z2 | E,2 z2 | [A,,A,]4 | [A,,A,]2 [A,,A,]2 | %30
 [A,,A,][A,,A,][A,,A,][A,,A,] | [A,,C,E,A,]4 :| %32
V:3
 A,2 x2 | x4 | x4 | x4 | x4 | x4 | x4 | x4 | x4 | x4 | x4 | x4 | x4 | x4 | x4 | x4 ::[K:C] x4 | %17
 x4 | x4 | x4 | x4 | x4 | x4 | x4 :: x4 | x4 | x4 | x4 | x4 | x4 | x4 | x4 :| %32

